X: 183
T: Brnd-Jons polska
O: Dalarna, Orsa
R: Polska
Z: Hkan Lidn, 2008-09-27
M: 9/8
L: 1/4
K: Ador
E ^G/ A B/ c A/ | e c/d/ c/A/ B ^G/ | A B/ c/ d e a/ | a/^g e3/ E3/- |
E ^G/ A B/ c A/ | e c/d/ c/A/ B ^G/ | A B/ c/ d e a/ | a/^g e3- | e3/ e3 :|
|: z a^g e =g/ | g/f/ d f e3/- | e a/b/ a/^g/ e =g/ | g/f/ d f e3/- |
e/f/ e d c B/ | A G/ (4:6:4=F//G//A//B// c d/ | e/f/ e d c c/ | B/^G/B/ A3 :|
